data/img/material/black/mouse-off.svg

<svg xmlns="http://www.w3.org/2000/svg" viewBox="0 0 24 24">
	<path d="M2 5.27 3.28 4 20 20.72 18.73 22 17.5 20.79A8 8 0 014 15v-4h3.73l-2-2H4a8 8 0 01.15-1.58zM11 9h-.18L5.79 3.96A8 8 0 0111 1.07zm1.82 2H20v4a8 8 0 01-.47 2.71zM13 1.07A8 8 0 0120 9h-7z"/>
</svg>

<svg viewBox="0 0 24 24">
    <path d="M2,5.27L3.28,4L20,20.72L18.73,22L17.5,20.79C16.08,22.16 14.14,23 12,23C7.58,23 4,19.42 4,15V11H7.73L5.73,9H4C4,8.46 4.05,7.93 4.15,7.42L2,5.27M11,1.07V9H10.82L5.79,3.96C7.05,2.4 8.9,1.33 11,1.07M20,11V15C20,15.95 19.83,16.86 19.53,17.71L12.82,11H20M13,1.07C16.94,1.56 20,4.92 20,9H13V1.07Z"/>
</svg>
